src/assets/icons/delete.svg

<svg width="24" height="24" viewBox="0 0 24 24" xmlns="http://www.w3.org/2000/svg">
<path d="M19.5294 6.91765H15.5765V5.41176C15.5765 4.56471 14.9176 4 14.0706 4H10.3059C9.83529 4 9.45882 4.09412 9.17647 4.37647C8.89412 4.65882 8.70588 4.94118 8.70588 5.41176V6.82353H4.47059C4.18824 6.82353 4 7.01176 4 7.29412C4 7.57647 4.18824 7.85882 4.47059 7.85882H6.44706V17.8353C6.44706 18.4 6.63529 18.9647 7.01176 19.3412C7.38824 19.7176 7.85882 20 8.42353 20H15.8588C16.4235 20 16.8941 19.7176 17.2706 19.3412C17.6471 18.9647 17.8353 18.4 17.8353 17.8353V7.85882H19.5294C19.8118 7.85882 20 7.67059 20 7.38824C20 7.10588 19.8118 6.91765 19.5294 6.91765ZM9.64706 5.50588C9.64706 5.31765 9.74118 5.12941 9.83529 5.03529C9.92941 4.94118 10.0235 4.94118 10.2118 4.94118H14.0706C14.3529 4.94118 14.6353 5.12941 14.6353 5.41176V6.82353H9.64706V5.50588ZM16.8 17.8353C16.8 18.1176 16.7059 18.4941 16.5176 18.6824C16.3294 18.8706 16.0471 19.0588 15.8588 19.0588H8.42353C8.14118 19.0588 7.95294 18.9647 7.76471 18.6824C7.57647 18.4941 7.48235 18.1176 7.48235 17.8353V7.85882H16.8941V17.8353H16.8Z" />
</svg>

<svg xmlns="http://www.w3.org/2000/svg" width="24" height="24"><path d="M19.53 6.92h-3.95v-1.5c0-.86-.66-1.42-1.5-1.42H10.3c-.47 0-.85.1-1.13.38-.29.28-.47.56-.47 1.03v1.41H4.47c-.28 0-.47.2-.47.47 0 .29.19.57.47.57h1.98v9.98c0 .56.19 1.12.56 1.5a2 2 0 0 0 1.41.66h7.44a2 2 0 0 0 1.41-.66c.38-.38.57-.94.57-1.5V7.86h1.69c.28 0 .47-.19.47-.47 0-.28-.19-.47-.47-.47ZM9.65 5.5c0-.2.1-.38.19-.47.09-.1.18-.1.37-.1h3.86c.28 0 .57.19.57.47v1.41h-5V5.51Zm7.15 12.33c0 .28-.1.65-.28.84-.2.2-.47.38-.66.38H8.42c-.28 0-.47-.1-.66-.38-.18-.19-.28-.56-.28-.84V7.86h9.41v9.98h-.09Z"/></svg>
